public/icons/iconsocial5.svg

<svg width="69" height="68" viewBox="0 0 69 68" fill="none" xmlns="http://www.w3.org/2000/svg">
<path d="M34.5 35.1543C36.0797 35.1543 37.624 34.6858 38.9375 33.8081C40.2511 32.9304 41.2748 31.6829 41.8793 30.2234C42.4838 28.7639 42.642 27.1579 42.3337 25.6085C42.0255 24.0591 41.2647 22.6359 40.1476 21.5189C39.0305 20.4019 37.6072 19.6412 36.0578 19.3331C34.5084 19.025 32.9024 19.1832 31.4429 19.7879C29.9834 20.3925 28.736 21.4164 27.8585 22.73C26.9809 24.0436 26.5126 25.5879 26.5127 27.1677C26.5152 29.2852 27.3576 31.3152 28.8549 32.8125C30.3523 34.3097 32.3825 35.1519 34.5 35.1543ZM34.5 21.219C35.6762 21.219 36.8261 21.5678 37.8041 22.2213C38.7821 22.8748 39.5444 23.8036 39.9945 24.8904C40.4447 25.9771 40.5625 27.1729 40.333 28.3265C40.1035 29.4802 39.5371 30.5399 38.7053 31.3717C37.8736 32.2034 36.8139 32.7698 35.6602 32.9993C34.5066 33.2288 33.3108 33.111 32.224 32.6609C31.1373 32.2107 30.2085 31.4484 29.555 30.4704C28.9015 29.4924 28.5527 28.3426 28.5527 27.1663C28.5545 25.5895 29.1817 24.0779 30.2966 22.9629C31.4115 21.848 32.9232 21.2208 34.5 21.219Z" fill="#3A67B1"/>
<path d="M51.895 28.1152C53.4746 28.1152 55.0188 27.6468 56.3323 26.7692C57.6457 25.8917 58.6695 24.6443 59.2741 23.185C59.8787 21.7256 60.037 20.1197 59.729 18.5704C59.4209 17.0211 58.6604 15.5979 57.5436 14.4808C56.4267 13.3636 55.0037 12.6028 53.4545 12.2944C51.9052 11.9859 50.2993 12.1438 48.8398 12.748C47.3803 13.3523 46.1327 14.3757 45.2548 15.6889C44.3769 17.0022 43.9081 18.5462 43.9077 20.1259C43.9095 22.2439 44.7515 24.2746 46.249 25.7725C47.7465 27.2703 49.777 28.1128 51.895 28.1152ZM51.895 14.1806C53.0713 14.1806 54.2213 14.5295 55.1993 15.1831C56.1774 15.8367 56.9397 16.7656 57.3898 17.8525C57.8398 18.9393 57.9575 20.1352 57.7279 21.2889C57.4982 22.4426 56.9316 23.5023 56.0996 24.334C55.2677 25.1657 54.2078 25.7319 53.054 25.9612C51.9002 26.1904 50.7043 26.0723 49.6177 25.6219C48.531 25.1714 47.6023 24.4088 46.949 23.4306C46.2958 22.4523 45.9473 21.3022 45.9477 20.1259C45.9502 18.5495 46.5777 17.0385 47.6925 15.924C48.8074 14.8095 50.3186 14.1826 51.895 14.1806Z" fill="#3A67B1"/>
<path d="M3.89988 48.9502H20.4286C20.3284 49.6293 20.2771 50.3147 20.275 51.0011V54.9655C20.275 55.236 20.3824 55.4955 20.5737 55.6868C20.765 55.878 21.0244 55.9855 21.295 55.9855H47.7048C47.9753 55.9855 48.2348 55.878 48.4261 55.6868C48.6173 55.4955 48.7248 55.236 48.7248 54.9655V51.0011C48.7228 50.314 48.6714 49.6279 48.5711 48.9482H65.0999C65.3704 48.9482 65.6298 48.8407 65.8211 48.6494C66.0124 48.4581 66.1199 48.1987 66.1199 47.9282V43.9679C66.1195 40.7657 65.0388 37.6573 63.0525 35.1456C61.0662 32.6339 58.2906 30.8658 55.1747 30.1273C52.0588 29.3889 48.7849 29.7234 45.8827 31.0766C42.9805 32.4298 40.6197 34.7226 39.1824 37.584C36.1451 36.5366 32.8444 36.5378 29.8079 37.5874C28.3726 34.7249 26.013 32.4307 23.1114 31.0764C20.2097 29.7221 16.9358 29.387 13.8199 30.1253C10.704 30.8636 7.92851 32.6321 5.943 35.1444C3.95749 37.6567 2.87819 40.7657 2.87988 43.9679V47.9302C2.87988 48.2007 2.98735 48.4602 3.17864 48.6515C3.36992 48.8428 3.62936 48.9502 3.89988 48.9502ZM51.895 31.7829C53.4951 31.7829 55.0797 32.098 56.558 32.7103C58.0364 33.3226 59.3797 34.2201 60.5112 35.3516C61.6427 36.4831 62.5402 37.8264 63.1525 39.3048C63.7649 40.7832 64.08 42.3677 64.0799 43.9679V46.9102H48.1264C48.1176 46.881 48.1067 46.8524 48.0972 46.8232C48.0625 46.7103 48.023 46.6001 47.985 46.4879C47.9238 46.305 47.8619 46.1228 47.7939 45.9439C47.7476 45.8236 47.698 45.7059 47.649 45.5869C47.581 45.4183 47.509 45.251 47.4328 45.0858C47.3779 44.9657 47.3211 44.8464 47.2621 44.7281C47.1832 44.5676 47.1012 44.409 47.016 44.2521C46.9527 44.1351 46.8888 44.0182 46.8222 43.9033C46.7324 43.7482 46.6392 43.5952 46.544 43.4436C46.476 43.3321 46.404 43.2205 46.3305 43.1111C46.2278 42.9567 46.1197 42.8064 46.0109 42.6561C45.9375 42.5555 45.8661 42.4521 45.7899 42.3542C45.6655 42.1917 45.5342 42.0339 45.4023 41.8782C45.3343 41.7973 45.2663 41.7137 45.1983 41.6341C44.9943 41.4002 44.7815 41.1717 44.5605 40.9541C44.2667 40.6597 43.9594 40.3836 43.6438 40.1177C43.5439 40.0341 43.4398 39.9559 43.3378 39.8743C43.1141 39.6968 42.887 39.5241 42.6538 39.3602C42.5327 39.2759 42.4106 39.1934 42.2872 39.1127C42.0533 38.959 41.8112 38.8141 41.5705 38.6747C41.4515 38.6067 41.3339 38.5387 41.2122 38.4707C41.1612 38.4435 41.1129 38.4123 41.0619 38.3857C42.0854 36.3951 43.6382 34.7253 45.5496 33.5604C47.4609 32.3954 49.6566 31.7804 51.895 31.7829ZM39.3075 39.8022C41.4988 40.7413 43.366 42.3032 44.6775 44.294C45.989 46.2849 46.687 48.6171 46.6848 51.0011V53.9455H22.315V51.0011C22.3142 50.0459 22.4255 49.094 22.6468 48.1648C22.8673 47.2418 23.1959 46.3479 23.626 45.5019C23.7736 45.2116 23.9368 44.9301 24.1068 44.6526C25.421 42.4956 27.3727 40.8 29.6923 39.8001C31.2129 39.1546 32.8481 38.8221 34.5001 38.8224C36.1521 38.8228 37.7871 39.156 39.3075 39.8022ZM4.91988 43.9679C4.92313 41.2374 5.84292 38.5871 7.53185 36.4416C9.22077 34.2961 11.5811 32.7798 14.2344 32.1355C16.8878 31.4913 19.6806 31.7564 22.1654 32.8885C24.6501 34.0206 26.6829 35.954 27.9379 38.3789C27.9005 38.3987 27.8665 38.4231 27.8291 38.4429C27.4496 38.6469 27.0811 38.8604 26.7207 39.095L26.6996 39.1079C26.3399 39.3452 25.9944 39.6023 25.6585 39.8702C25.6048 39.913 25.5504 39.9545 25.4967 39.998C25.1794 40.26 24.8731 40.5348 24.578 40.8222L24.4162 40.984C24.1224 41.2805 23.8388 41.5865 23.5716 41.9068C23.543 41.9415 23.5165 41.9748 23.4886 42.0115C23.2293 42.3288 22.9843 42.6561 22.7536 42.9934C22.7291 43.0301 22.7019 43.0648 22.6774 43.1015C22.4455 43.4477 22.232 43.806 22.0307 44.1719C21.9933 44.2399 21.9559 44.3079 21.9192 44.3759C21.7274 44.7383 21.55 45.1096 21.3902 45.489C21.3623 45.557 21.3364 45.6216 21.3099 45.6883C21.1488 46.0854 21.0012 46.4886 20.8768 46.9014L20.8734 46.9102H4.91988V43.9679Z" fill="#3A67B1"/>
<path d="M17.105 28.1152C18.6846 28.1152 20.2288 27.6468 21.5422 26.7692C22.8557 25.8917 23.8794 24.6443 24.484 23.185C25.0886 21.7256 25.2469 20.1197 24.9389 18.5704C24.6309 17.0211 23.8704 15.5979 22.7535 14.4808C21.6367 13.3636 20.2137 12.6028 18.6644 12.2944C17.1152 11.9859 15.5093 12.1438 14.0498 12.748C12.5902 13.3523 11.3427 14.3757 10.4648 15.6889C9.58687 17.0022 9.11808 18.5462 9.11768 20.1259C9.11948 22.2439 9.9615 24.2746 11.459 25.7725C12.9564 27.2703 14.987 28.1128 17.105 28.1152ZM17.105 14.1806C18.2813 14.1806 19.4312 14.5295 20.4093 15.1831C21.3874 15.8367 22.1496 16.7656 22.5997 17.8525C23.0498 18.9393 23.1675 20.1352 22.9378 21.2889C22.7082 22.4426 22.1415 23.5023 21.3096 24.334C20.4776 25.1657 19.4178 25.7319 18.264 25.9612C17.1102 26.1904 15.9143 26.0723 14.8276 25.6219C13.7409 25.1714 12.8122 24.4088 12.159 23.4306C11.5057 22.4523 11.1573 21.3022 11.1577 20.1259C11.1602 18.5495 11.7877 17.0385 12.9025 15.924C14.0173 14.8095 15.5286 14.1826 17.105 14.1806Z" fill="#3A67B1"/>
</svg>

<svg xmlns="http://www.w3.org/2000/svg" fill="none" viewBox="0 0 69 68">
  <path fill="#3A67B1" d="M34.5 35.154a7.987 7.987 0 1 0-7.987-7.986 7.996 7.996 0 0 0 7.987 7.986Zm0-13.935a5.947 5.947 0 1 1-5.947 5.947A5.954 5.954 0 0 1 34.5 21.22ZM51.895 28.115a7.987 7.987 0 1 0-7.987-7.99 7.996 7.996 0 0 0 7.987 7.99Zm0-13.934a5.947 5.947 0 1 1-5.947 5.945 5.955 5.955 0 0 1 5.947-5.945Z"/>
  <path fill="#3A67B1" d="M3.9 48.95h16.529c-.1.68-.152 1.365-.154 2.051v3.965a1.02 1.02 0 0 0 1.02 1.02h26.41a1.02 1.02 0 0 0 1.02-1.02V51a14.349 14.349 0 0 0-.154-2.053H65.1a1.02 1.02 0 0 0 1.02-1.02v-3.96a14.226 14.226 0 0 0-26.938-6.384 14.363 14.363 0 0 0-9.374.003 14.218 14.218 0 0 0-26.928 6.38v3.963a1.02 1.02 0 0 0 1.02 1.02Zm47.995-17.167A12.186 12.186 0 0 1 64.08 43.968v2.942H48.126c-.008-.029-.02-.058-.029-.087-.035-.113-.074-.223-.112-.335a14.316 14.316 0 0 0-.191-.544c-.046-.12-.096-.238-.145-.357a11.187 11.187 0 0 0-.387-.859 13.204 13.204 0 0 0-.44-.825 14.964 14.964 0 0 0-.811-1.247c-.074-.1-.145-.204-.221-.302-.124-.162-.256-.32-.388-.476l-.204-.244a14.366 14.366 0 0 0-1.555-1.516c-.1-.084-.203-.162-.305-.244-.224-.177-.451-.35-.684-.514a14.936 14.936 0 0 0-1.083-.685c-.12-.068-.237-.136-.359-.204-.05-.027-.1-.059-.15-.085a12.165 12.165 0 0 1 10.833-6.603Zm-12.588 8.02A12.172 12.172 0 0 1 46.685 51v2.945h-24.37V51a12.059 12.059 0 0 1 1.311-5.5c.148-.29.31-.57.48-.848a12.192 12.192 0 0 1 5.586-4.853 12.298 12.298 0 0 1 9.615.002ZM4.92 43.967a12.191 12.191 0 0 1 23.018-5.59c-.037.02-.072.045-.109.065-.38.204-.748.417-1.108.652l-.021.013c-.36.237-.706.494-1.041.762l-.162.128a15.06 15.06 0 0 0-.919.824l-.162.162c-.294.297-.577.602-.844.923a3.323 3.323 0 0 0-.083.105c-.26.317-.505.644-.735.981-.025.037-.052.072-.077.108-.232.347-.445.705-.646 1.07l-.112.205a13.993 13.993 0 0 0-.61 1.312c-.16.397-.308.8-.432 1.213l-.004.01H4.92v-2.943Z"/>
  <path fill="#3A67B1" d="M17.105 28.115a7.987 7.987 0 1 0-7.987-7.99 7.996 7.996 0 0 0 7.987 7.99Zm0-13.934a5.947 5.947 0 1 1-5.947 5.945 5.955 5.955 0 0 1 5.947-5.945Z"/>
</svg>
